symbols/web/theater_comedy/materialsymbolsoutlined/theater_comedy_wght500fill1_40px.svg

<svg xmlns="http://www.w3.org/2000/svg" height="40" width="40"><path d="M11.542 37.167q-4.209 0-7.167-3t-2.958-7.125V15.5h20.208v11.542q0 4.125-2.958 7.125-2.959 3-7.125 3Zm-3.5-12.875q.625 0 1.062-.417.438-.417.438-1.042 0-.666-.438-1.104-.437-.437-1.062-.437-.667 0-1.104.437-.438.438-.438 1.063 0 .666.438 1.083.437.417 1.104.417Zm3.541 6.166q1.667 0 3.021-.812 1.354-.813 1.354-2.188h-8.75q0 1.375 1.354 2.188 1.355.812 3.021.812Zm3.459-6.166q.666 0 1.104-.417.437-.417.437-1.042 0-.666-.437-1.104-.438-.437-1.104-.437-.625 0-1.063.437-.437.438-.437 1.063 0 .666.437 1.083.438.417 1.063.417Zm13.458.166q-1.25 0-2.417-.291-1.166-.292-2.25-.834V13.292h-5.5v-10.5h20.25v11.833q0 4.083-2.937 6.958-2.938 2.875-7.146 2.875Zm-3.458-12.583q.625 0 1.062-.458.438-.459.438-1.042 0-.667-.438-1.104-.437-.438-1.062-.438-.667 0-1.104.438-.438.437-.438 1.104 0 .583.438 1.042.437.458 1.104.458Zm-.667 5.875h8.5q0-1.417-1.354-2.208-1.354-.792-3.021-.792-1.167 0-2.583.625-1.417.625-1.542 1.958Zm7.667-5.875q.625 0 1.062-.458.438-.459.438-1.042 0-.667-.438-1.104-.437-.438-1.062-.438-.667 0-1.104.438-.438.437-.438 1.104 0 .583.438 1.042.437.458 1.104.458Z"/></svg>

<svg xmlns="http://www.w3.org/2000/svg" height="40" width="40"><path d="M11.542 37.167Q7.333 37.167 4.375 34.167Q1.417 31.167 1.417 27.042V15.5H21.625V27.042Q21.625 31.167 18.667 34.167Q15.708 37.167 11.542 37.167ZM8.042 24.292Q8.667 24.292 9.104 23.875Q9.542 23.458 9.542 22.833Q9.542 22.167 9.104 21.729Q8.667 21.292 8.042 21.292Q7.375 21.292 6.938 21.729Q6.5 22.167 6.5 22.792Q6.5 23.458 6.938 23.875Q7.375 24.292 8.042 24.292ZM11.583 30.458Q13.25 30.458 14.604 29.646Q15.958 28.833 15.958 27.458H7.208Q7.208 28.833 8.562 29.646Q9.917 30.458 11.583 30.458ZM15.042 24.292Q15.708 24.292 16.146 23.875Q16.583 23.458 16.583 22.833Q16.583 22.167 16.146 21.729Q15.708 21.292 15.042 21.292Q14.417 21.292 13.979 21.729Q13.542 22.167 13.542 22.792Q13.542 23.458 13.979 23.875Q14.417 24.292 15.042 24.292ZM28.5 24.458Q27.25 24.458 26.083 24.167Q24.917 23.875 23.833 23.333V13.292Q23.833 13.292 23.833 13.292Q23.833 13.292 23.833 13.292H18.333V2.792H38.583V14.625Q38.583 18.708 35.646 21.583Q32.708 24.458 28.5 24.458ZM25.042 11.875Q25.667 11.875 26.104 11.417Q26.542 10.958 26.542 10.375Q26.542 9.708 26.104 9.271Q25.667 8.833 25.042 8.833Q24.375 8.833 23.938 9.271Q23.5 9.708 23.5 10.375Q23.5 10.958 23.938 11.417Q24.375 11.875 25.042 11.875ZM24.375 17.75H32.875Q32.875 16.333 31.521 15.542Q30.167 14.75 28.5 14.75Q27.333 14.75 25.917 15.375Q24.5 16 24.375 17.333ZM32.042 11.875Q32.667 11.875 33.104 11.417Q33.542 10.958 33.542 10.375Q33.542 9.708 33.104 9.271Q32.667 8.833 32.042 8.833Q31.375 8.833 30.938 9.271Q30.5 9.708 30.5 10.375Q30.5 10.958 30.938 11.417Q31.375 11.875 32.042 11.875Z"/></svg>
